X:1
T:Vals Akabat, tredjestämma första reprisen
R:Vals
Z:Anton Teljebäck
M:3/4
L:1/8
K:D
|dd |d2 d(d d)d | dB A2 dd | d2 d(d d)d | dB A2 dd |d2 d(d d)d | dB A2 dd | A2 A(G G)G | F2 F2 :|

